X:1
T:Scots Wha Ha'e Wi' Wallace Bled
M:4/4
L:1/8
K:C
 e e/2e/2 ee e2 g3/2 g/2-| dd dd d3/2 e/2 f3/2 f/2-| g/2 e3/2 d3/2 c/2 c3/2 d/2 e3/2- d/2|\
 c3/2 A/2 A3/2 G/2 G4| G3/2 G/2 GG G3/2 A/2 c2| A3/2 c/2 AG A3/2 B/2 c3/2- d/2|\
 eg d3/2 e/2 c3/2 d/2 e3/2- d/2| c/2 A3/2 A3/2 G/2 G4|

